config/_h5ai/public/images/ui/view-details.svg

<svg xmlns:svg="http://www.w3.org/2000/svg" xmlns="http://www.w3.org/2000/svg" version="1.1" width="24" height="24" viewBox="0 0 24 24">
  <path d="m4 4 0 4 16 0 0-4zm0 6 0 4 16 0 0-4zm0 6 0 4 16 0 0-4z" fill="#555"/>
</svg>

<svg width="24" height="24" viewBox="0 0 24 24" fill="none" xmlns="http://www.w3.org/2000/svg">
<path d="M4 4V8H20V4H4ZM4 10V14H20V10H4ZM4 16V20H20V16H4Z" fill="#CBA6F7"/>
</svg>
